!!!!SEGMENT: pl-kk--kk-i-190--001_anonim--invicte-martyr.krn
!!!cenid: 17xx:2606
!!!COM: Anonim
!!!COM-rismID: pe30004985
!!!CDT:
!!!CNT:
!!!OTL: Invicte martyr
!!!PDT:
!!!AGN: Sacred; Hymns
!!!YEC: Copyright 2022 Narodowy Instytut Fryderyka Chopina (https://polishscores.org)
!!!YEM: License CC-BY-4.0 (https://creativecommons.org/licenses/by/4.0)
!!!SMS-siglum: PL-Kk
!!!SMS-shelfmark: Kk.I.190
!!!SMS-variant:
!!!SMS-altvar:
!!!SMS-shelfwork: 001 W
!!!NIFC-rismSourceID: 1001152158
!!!NIFC-rismChildID: 1001152160
!!!NIFC-islandoraID: pl-kk:4020
!!!URL-pdf-islandora: https://repozytorium.nifc.pl/islandora/object/pl-kk:4020/datastream/PDF/view
!!!URL-scan: https://polish.musicsources.pl/pl/lokalizacje/galeria/rekopisy/5818/1 @EN{Scan on Polish Music Sources Website} @PL{Skany w portalu Dziedzictwo Muzyki Polskiej w otwartym dostępie}
!!!IIIF:
!!!ONB-nifc:
!!!AIN: 1 alto 1 bass 1 soprn 1 tenor
!!!key: d:dor
**kern	**text	**text	**kern	**text	**text	**kern	**text	**text	**kern	**text	**text	**kern	**text	**text
*part5	*part5	*part5	*part4	*part4	*part4	*part3	*part3	*part3	*part2	*part2	*part2	*part1	*part1	*part1
*staff5	*staff5	*staff5	*staff4	*staff4	*staff4	*staff3	*staff3	*staff3	*staff2	*staff2	*staff2	*staff1	*staff1	*staff1
*IGripn	*	*	*	*	*	*	*	*	*	*	*	*	*	*
*	*	*	*ICvox	*	*	*ICvox	*	*	*ICvox	*	*	*ICvox	*	*
*	*	*	*Ibass	*	*	*Itenor	*	*	*Ialto	*	*	*Isoprn	*	*
*I"Baſso Ripieno.	*	*	*I"Baſso.	*	*	*I"Tenore	*	*	*I"Alto.	*	*	*I"Canto.	*	*
*I'B rip	*	*	*I'B	*	*	*I'T	*	*	*I'A	*	*	*I'S	*	*
*clefF4	*	*	*clefF4	*	*	*clefC4	*	*	*clefC3	*	*	*clefC1	*	*
*k[]	*	*	*k[]	*	*	*k[]	*	*	*k[]	*	*	*k[]	*	*
*d:dor	*	*	*d:dor	*	*	*d:dor	*	*	*d:dor	*	*	*d:dor	*	*
*M3/2	*	*	*M3/2	*	*	*M3/2	*	*	*M3/2	*	*	*M3/2	*	*
=1	=1	=1	=1	=1	=1	=1	=1	=1	=1	=1	=1	=1	=1	=1
*2\right	*v:1	*v:3	*2\right	*	*	*2\right	*	*	*2\right	*	*	*2\right	*	*
!LO:TX:a:t=Pro Tempore Paschali\nDe Uno Martyre	!	!	!LO:TX:a:t=Tempore Paſchali.	!	!	!LO:TX:a:t=Tempore Paſchàli	!	!	!LO:TX:a:t=Tempore Paſchali	!	!	!LO:TX:a:t=Tempore Paſchali.	!	!
2D/	In-	So-	2D/	In-	.	2A\	In-	.	2f\	In-	.	2d/	In-	.
2D/	-vi-	-lu-	2D/	-vi-	.	2A\	-vi-	.	2.d\	-vi-	.	2f/	-vi-	.
2C/	-cte	-ta	2C/	-cte	.	2c\	-cte	.	.	.	.	2g/	-cte	.
.	.	.	.	.	.	.	.	.	4e\	-cte	.	.	.	.
=2	=2	=2	=2	=2	=2	=2	=2	=2	=2	=2	=2	=2	=2	=2
2F\	Mar-	sunt	2F\	Mar-	.	2c\	Mar-	.	2f\	.	.	2a\	Mar-	.
2F\	-tyr	jam	2F\	-tyr	.	2c,\	-tyr	.	2f,\	Mar-	.	2a,\	-tyr	.
2C/	.	.	2C/	In-	.	2c\	.	.	2e\	-tyr	.	2g/	In-	.
=3	=3	=3	=3	=3	=3	=3	=3	=3	=3	=3	=3	=3	=3	=3
1D	in-	so-	1D	-vi-	.	1A	In-	.	1d	In-	.	1f	-vi-	.
2C/	-vi-	-lu-	2C/	-cte	.	2c\	-vi-	.	2e\	-vi-	.	2g,/	-cte	.
=4	=4	=4	=4	=4	=4	=4	=4	=4	=4	=4	=4	=4	=4	=4
2.F\	-cte	-ta	2.F\	Mar-	.	1c	-cte	.	1f	-cte	.	1a	Mar-	.
4G\	Mar-	.	4G\	.	.	.	.	.	.	.	.	.	.	.
2A\	.	sunt	2A\	.	.	2c\	Mar-	.	2e\	Mar-	.	2a\	-tyr	.
=5	=5	=5	=5	=5	=5	=5	=5	=5	=5	=5	=5	=5	=5	=5
2D\	-tyr	jam	2D,\	-tyr	.	2d\	-tyr	.	2f\	-tyr	.	1a	u-	.
2.E\	u-	vin-	2.E\	U-	.	2.Bn\	U-	.	2.e\	u-	.	.	.	.
.	.	.	.	.	.	.	.	.	.	.	.	2g#X/	-ni-	.
4E\	-ni-	-cu-	4E\	-ni-	.	4B\	-ni-	.	4e\	-ni-	.	.	.	.
=6-	=6	=6	=6-	=6	=6	=6-	=6	=6	=6-	=6	=6	=6-	=6	=6
*M2/2	*	*	*M2/2	*	*	*M2/2	*	*	*M2/2	*	*	*M2/2	*	*
*met(c|)	*	*	*met(c|)	*	*	*met(c|)	*	*	*met(c|)	*	*	*met(c|)	*	*
2AA/	-cum	-la	2AA/	-cum	.	2c#X\	-cum	.	2e\	-cum	.	2a,\	-cum	.
2r,	.	.	2r,	.	.	2r	.	.	2r	.	.	2fn/	Pa-	.
=7	=7	=7	=7	=7	=7	=7	=7	=7	=7	=7	=7	=7	=7	=7
00r	.	.	00r	.	.	00r	.	.	0r	.	.	2.g\	-tris	.
.	.	.	.	.	.	.	.	.	.	.	.	4g\	se-	.
=8	=8	=8	=8	=8	=8	=8	=8	=8	=8	=8	=8	=8-	=8	=8
.	.	.	.	.	.	.	.	.	.	.	.	1a	-cu-	.
!	!	!	!	!	!	!	!	!	!	!	!	!LO:LB:g=original	!	!
=9	=9	=9	=9	=9	=9	=9	=9	=9	=9	=9	=9	=9	=9	=9
.	.	.	.	.	.	.	.	.	1c	Pa-	.	2g,\	-tus	.
.	.	.	.	.	.	.	.	.	.	.	.	1cc\	se-	.
=10	=10	=10	=10	=10	=10	=10	=10	=10	=10	=10	=10	=10-	=10	=10
.	.	.	.	.	.	.	.	.	2.d\	-tris	.	.	.	.
.	.	.	.	.	.	.	.	.	.	.	.	2bn\	.	.
.	.	.	.	.	.	.	.	.	4d\	se-	.	.	.	.
!	!	!	!	!	!	!	!	!	!LO:LB:g=original	!	!	!	!	!
=11	=11	=11	=11	=11	=11	=11	=11	=11	=11	=11	=11	=11	=11	=11
0r	.	.	0r	.	.	1r	.	.	1e	-cu-	.	2cc\	-cu-	.
.	.	.	.	.	.	.	.	.	.	.	.	2g\	-tus	.
=12	=12	=12	=12	=12	=12	=12	=12	=12	=12-	=12	=12	=12	=12	=12
.	.	.	.	.	.	1F	Pa-	.	2c\	-tus	.	2.a\	Fi-	.
.	.	.	.	.	.	.	.	.	1f	se-	.	.	.	.
.	.	.	.	.	.	.	.	.	.	.	.	4a\	-li-	.
=13	=13	=13	=13	=13	=13	=13	=13	=13	=13-	=13	=13	=13	=13	=13
1C	Pa-	Tu-	1C	Pa-	.	2G/	-tris	.	.	.	.	2g,/	-um	.
.	.	.	.	.	.	2A/	se-	.	2e\	-cu-	.	4cc\	se-	.
.	.	.	.	.	.	.	.	.	.	.	.	4b\	.	.
!	!	!	!	!	!	!LO:LB:g=original	!	!	!	!	!	!	!	!
=14-	=14	=14	=14-	=14	=14	=14	=14	=14	=14	=14	=14	=14	=14	=14
2.D\	-tris	-i	2.D/	-tris	.	2A/	-cu-	.	4f\	.	.	2.a\	-cu-	.
.	.	.	.	.	.	.	.	.	4g\	.	.	.	.	.
.	.	.	.	.	.	2F/	-tus	.	2a\	.	.	.	.	.
4D\	se-	sa-	4D/	se-	.	.	.	.	.	.	.	8g/L	.	.
.	.	.	.	.	.	.	.	.	.	.	.	8f/J	.	.
*	*	*	*custos:E	*	*	*	*	*	*	*	*	*	*	*
!	!	!	!LO:LB:g=original	!	!	!	!	!	!	!	!	!	!	!
=15	=15	=15	=15	=15	=15	=15	=15	=15	=15	=15	=15	=15	=15	=15
1E	-cu-	-cra-	1E	-cu-	.	1G	se-	.	2.g\	.	.	(4e/	-tus	.
.	.	.	.	.	.	.	.	.	.	.	.	4d,/)	.	.
.	.	.	.	.	.	.	.	.	.	.	.	(4e/	se-	.
.	.	.	.	.	.	.	.	.	4f\	.	.	4f/)	.	.
=16-	=16	=16	=16-	=16	=16	=16-	=16	=16	=16	=16	=16	=16	=16	=16
2C,/	-t(us)	-ti	2C,/	-tus	.	1c	-cu-	.	4e\	.	.	2g/	-cu-	.
.	.	.	.	.	.	.	.	.	4d\	.	.	.	.	.
*	*ij	*ij	*	*	*	*	*	*	*	*	*	*	*	*
2C/	se-	sa-	2C/	se-	.	.	.	.	1c	.	.	4e/	-tus	.
.	.	.	.	.	.	.	.	.	.	.	.	4f/	.	.
*	*	*	*	*	*	*lig	*	*	*	*	*	*	*	*
=17	=17	=17	=17	=17	=17	=17	=17	=17	=17-	=17	=17	=17	=17	=17
2G\	-cu-	-cra-	2G\	-cu-	.	1d	-tus	.	.	.	.	4g\	.	.
.	.	.	.	.	.	.	.	.	.	.	.	4a\	Fi-	.
2GG/	-t(us)	-ti	2GG/	-t(us)	.	.	.	.	2B/	-tus	.	1bn	.	.
*	*Xij	*Xij	*	*	*	*	*	*	*	*	*	*	*	*
=18	=18	=18	=18	=18	=18	=18-	=18	=18	=18	=18	=18	=18-	=18	=18
4AA/	Fi-	Cor-	4AA/	Fi-	.	1c	.	.	1.e	Fi-	.	.	.	.
4BB/	.	.	4BB/	.	.	.	.	.	.	.	.	.	.	.
4C/	.	.	4C/	.	.	.	.	.	.	.	.	1a	.	.
4D/	.	.	4D/	.	.	.	.	.	.	.	.	.	.	.
*	*	*	*	*	*	*Xlig	*	*	*	*	*	*	*	*
=19-	=19	=19	=19	=19	=19	=19-	=19	=19	=19-	=19	=19	=19-	=19	=19
2.E\	.	.	2.E\	.	.	2.Bn\	Fi-	.	.	.	.	.	.	.
.	.	.	.	.	.	.	.	.	2e\	-li-	.	2g#X\	-li-	.
4E\	-li-	-po-	4E\	-li-	.	4B\	-li-	.	.	.	.	.	.	.
=20-	=20	=20	=20-	=20	=20	=20-	=20	=20	=20	=20	=20	=20	=20	=20
!	!	!	!	!	!	!	!	!	!	!	!	!LO:N:vis=2	!	!
1AA	-um	-ris	1AA	-um	.	1c#X	-um	.	1e	-um	.	1.a,	-um	.
=21	=21	=21	=21	=21	=21	=21	=21	=21	=21	=21	=21	=21-	=21	=21
2r	.	.	2r	.	.	1A	Vi-	.	2r	.	.	.	.	.
2F`\	vi-	nos	2F\	Vi-	.	.	.	.	2f\	Vi-	.	2cc\	Vi-	.
!LO:LB:g=original	!	!	!	!	!	!	!	!	!	!	!	!LO:LB:g=original	!	!
=22	=22	=22	=22	=22	=22	=22	=22	=22	=22	=22	=22	=22	=22	=22
2F,\	-ctis	sol-	2F\	-ctis	.	2A\	-ctis	.	2f\	-ctis	.	2cc,\	-ctis	.
2C/	tri-	-ve	2C/	tri-	.	2c\	tri-	.	2e\	tri-	.	2cc\	tri-	.
=23	=23	=23	=23	=23	=23	=23	=23	=23	=23	=23	=23	=23	=23	=23
2C/	-um-	vin-	2C/	-um-	.	2G/	-um-	.	2e\	-um-	.	2cc\	-um-	.
2D/	-phas	-clis	2D/	-phas	.	2F/	-phas	.	2d\	-phas	.	2a\	-phas	.
=24-	=24	=24	=24	=24	=24	=24	=24	=24	=24	=24	=24	=24	=24	=24
2.A\	hos-	sae-	2.AA/	hoſ-	.	2.E/	ho-	.	2d\	hos-	.	2.a\	hos-	.
.	.	.	.	.	.	.	.	.	2c#X\	-ti-	.	.	.	.
4AA/	-ti-	-cu-	4AA/	-ti-	.	4E/	-sti-	.	.	.	.	4a\	-ti-	.
=25-	=25	=25	=25-	=25	=25	=25	=25	=25	=25	=25	=25	=25	=25	=25
1D	-b(us).	-li	1D	-bus	.	2D,/	-b(us)	.	1d	-bus	.	1f	-b(us)	.
.	.	.	.	.	.	2d\	Vic-	.	.	.	.	.	.	.
!	!	!	!	!	!	!	!	!	!LO:LB:g=original	!	!	!	!	!
=26	=26	=26	=26	=26	=26	=26	=26	=26	=26	=26	=26	=26	=26	=26
2r	.	.	2r	.	.	2d\	-tor	.	00r	.	.	0r	.	.
2G\	Vic-	do-	2G\	Vic-	.	2d\	fru-	.	.	.	.	.	.	.
=27-	=27	=27	=27	=27	=27	=27	=27	=27	=27	=27	=27	=27	=27	=27
2G,\	-tor	-no	2G\	-tor	.	2en\	-ens	.	.	.	.	.	.	.
2G\	Fru-	su-	2G\	fru-	.	2d\	cae-	.	.	.	.	.	.	.
!	!	!	!LO:LB:g=original	!	!	!LO:LB:g=original	!	!	!	!	!	!	!	!
=28	=28	=28	=28	=28	=28	=28	=28	=28	=28	=28	=28	=28	=28	=28
2A\	-ens	-per-	2A\	-ens	.	2.A/	-le-	.	.	.	.	1r	.	.
2G\	cae-	-ni	2G\	cae-	.	.	.	.	.	.	.	.	.	.
.	.	.	.	.	.	4G/	.	.	.	.	.	.	.	.
=29-	=29	=29	=29	=29	=29	=29-	=29	=29	=29	=29	=29	=29	=29	=29
4F\	-le-	.	4F\	-le-	.	2A\	.	.	.	.	.	2r	.	.
4E\	.	.	4E\	.	.	.	.	.	.	.	.	.	.	.
4D\	.	.	4D\	.	.	2B\	-sti-	.	.	.	.	2dd\	Vi-	.
4E\	.	.	4E\	.	.	.	.	.	.	.	.	.	.	.
=30-	=30	=30	=30	=30	=30	=30	=30	=30	=30	=30	=30	=30	=30	=30
2F\	.	Nu-	2F\	.	.	1c	-bus	.	2r	.	.	2dd\	-ctor	.
2G\	-sti-	-mi-	2G\	-sti-	.	.	.	.	2g\	Vic-	.	2dd\	fru-	.
=31-	=31	=31	=31	=31	=31	=31	=31	=31	=31	=31	=31	=31	=31	=31
1C	-b(us)	-nis	1C	-bus	.	0r	.	.	2g\	-tor	.	2.ee\	-ens	.
.	.	.	.	.	.	.	.	.	2g\	fru-	.	.	.	.
.	.	.	.	.	.	.	.	.	.	.	.	4dd\	cae-	.
=32	=32	=32	=32	=32	=32	=32	=32	=32	=32	=32	=32	=32	=32	=32
1r	.	.	1r	.	.	.	.	.	2.a\	-ens	.	1.cc	-le-	.
.	.	.	.	.	.	.	.	.	4g\	.	.	.	.	.
=33-	=33	=33	=33	=33	=33	=33	=33	=33	=33	=33	=33	=33-	=33	=33
1D	Vic-	do-	1D	Vic-	.	1r	.	.	2f#X\	cae-	.	.	.	.
.	.	.	.	.	.	.	.	.	1g\	le-	.	2b\	.	.
=34-	=34	=34	=34-	=34	=34	=34	=34	=34	=34-	=34	=34	=34	=34	=34
!	!	!	!	!	!	!LO:TX:t=P:problem:brakująca pauza?	!	!	!	!	!	!	!	!
2D\	-tor	-no	2D\	-tor	.	1ryy	.	.	.	.	.	2.a\	.	.
2D\	fru-	su-	2D\	fru-	.	.	.	.	2f#X\	.	.	.	.	.
.	.	.	.	.	.	.	.	.	.	.	.	4a\	sti-	.
=35	=35	=35	=35	=35	=35	=35	=35	=35	=35	=35	=35	=35	=35	=35
2.E\	-ens	-per-	2.E\	-ens	.	2r	.	.	2.g\	.	.	2g,\	-b(us)	.
.	.	.	.	.	.	2G/	Vic-	.	.	.	.	2e/	Vi-	.
!	!	!	!	!	!	!	!	!	!LO:SIC:v:s=4f#\	!	!	!	!	!
4D/	.	.	4D/	.	.	.	.	.	4f\	-sti-	.	.	.	.
=36-	=36	=36	=36	=36	=36	=36	=36	=36	=36-	=36	=36	=36-	=36	=36
2.C/	cae-	-ni	2.C/	cae-	.	2G/	-tor	.	2e,\	-bus	.	2g\	-ctor	.
.	.	.	.	.	.	2G/	fru-	.	2c/	Vic-	.	2g\	fru-	.
4BB/	-le-	.	4BB/	-le-	.	.	.	.	.	.	.	.	.	.
=37-	=37	=37	=37	=37	=37	=37	=37	=37	=37	=37	=37	=37	=37	=37
4AA/	.	.	4AA/	.	.	1A	-ens	.	2c/	-tor	.	1.cc	-ens	.
4GG/	.	.	4GG/	.	.	.	.	.	.	.	.	.	.	.
2FF/	.	Nu-	2FF/	.	.	.	.	.	2c/	fru-	.	.	.	.
=38	=38	=38	=38	=38	=38	=38	=38	=38	=38-	=38	=38	=38-	=38	=38
1GG	.	.	1GG	.	.	1.G	cae-	.	2e\	-ens	.	.	.	.
.	.	.	.	.	.	.	.	.	2d\	cae-	.	2b\	cae-	.
!	!	!	!	!	!	!	!	!	!	!	!	!LO:LB:g=original	!	!
=39-	=39	=39	=39	=39	=39	=39	=39	=39	=39	=39	=39	=39	=39	=39
1.AA	.	.	1.AA	.	.	.	.	.	2c#X\	-le-	.	1.a	-les-	.
.	.	.	.	.	.	2F/	.	.	1d	.	.	.	.	.
=40-	=40	=40	=40-	=40	=40	=40	=40	=40	=40-	=40	=40	=40-	=40	=40
.	.	.	.	.	.	2.E/	-le-	.	.	.	.	.	.	.
2AA/	-sti-	-mi-	2AA/	-sti-	.	.	.	.	2c#X/	-sti-	.	2a\	-ti-	.
.	.	.	.	.	.	4E/	-sti-	.	.	.	.	.	.	.
=41-	=41	=41	=41-	=41	=41	=41	=41	=41	=41-	=41	=41	=41-	=41	=40
0D;	-bus.	-nis.	0D	-bus.	.	0F#X	-bus.	.	0d;	-bus.	.	0a;	-bus	.
!LO:LB:g=original	!	!	!LO:LB:g=original	!	!	!	!	!	!LO:LB:g=original	!	!	!	!	!
=41||	=41||	=41||	=41||	=41||	=41||	=41||	=41||	=41||	=41||	=41||	=41||	=41||	=41||	=41||
*M3/2	*	*	*M3/2	*	*	*M3/2	*	*	*M3/2	*	*	*M3/2	*	*
*	*v:2	*v:4	*	*	*	*	*	*	*	*	*	*	*	*
2D\	Tu-	De-	2D/	Tu-	DE-	2A\	Tu-	De-	2f\	Tu-	De-	2d/	Tu-	DE-
2D\	-i	-o	2D/	-i	-O	2A\	-i	-o	2d\	-i	-o	2f/	-i	-O
2C/	pre-	Pa-	2C/	pre-	Pa-	2c\	pre-	Pa-	2e\	pre-	Pa-	2g/	pre-	Pa-
=42-	=42	=42	=42	=42	=42	=42	=42	=42	=42	=42	=42	=42	=42	=42
1F	-ca-	-tri	1F	-ca-	-tri	1c	-ca-	-tri	1f	-ca-	-tri	1a	-ca-	-tri
2C/	-t(us)	sit	2C/	-tus	sit	2c\	-tus	sit	2e\	-tus	sit	2g\	-tus	sit
!	!	!	!	!	!	!LO:LB:g=original	!	!	!	!	!	!	!	!
=43-	=43	=43	=43	=43	=43	=43	=43	=43	=43	=43	=43	=43	=43	=43
1D	mu-	glo-	1D	mu-	glo-	1A	mu-	glo-	1d	mu-	glo-	1f	mu-	glo-
2GG/	-ne-	-(ri)-	2GG/	-ne-	-ri-	2B-X\	-ne-	-ri-	2d\	-ne-	-ri-	2g/	-ne-	-ri-
=44-	=44	=44	=44	=44	=44	=44	=44	=44	=44-	=44	=44	=44	=44	=44
1.AA	-re	-a	1.AA	-re,	-a	1.A	-re	-a	1.c#X	-re	-a	1.e	-re	-a
=45	=45	=45	=45	=45	=45	=45	=45	=45	=45	=45	=45	=45	=45	=45
2D\	noſ-	et	2D\	nos-	et	2A\	nos-	et	2d\	nos-	et	2f/	nos-	et
2D\	-tru(m)	Fi-	2D\	-trum	Fi-	2A\	-trum	Fi-	2d\	-trum	Fi-	2f/	-trum	Fi-
2C/	re-	-li-	2C/	re-	-li-	2c\	re-	-li-	2e\	re-	-li-	2g\	re-	-li-
=46-	=46	=46	=46	=46	=46	=46	=46	=46	=46	=46	=46	=46	=46	=46
2F\	-a-	-o	2F\	-a-	-o	2c\	-a-	-o	2f\	-a-	-o	2a\	-a-	-o
2F,\	-tu(m)	qui	2F,\	-tum	qui	2c\	-tum	qui	2f,\	-tum	Qui	2a,\	-tum	Qui
*	*ij	*	*	*	*	*	*ij	*	*	*ij	*	*	*ij	*
2G\	re-	à	2G\	re-	à	2B-\	re-	à	2e\	nos-	à	2g\	re-	à
=47	=47	=47	=47	=47	=47	=47	=47	=47	=47	=47	=47	=47	=47	=47
4A\	-a-	mor-	(4A\	-a-	mor-	1A	-a-	mor-	2e\	-trum	mor-	1cc	-a-	mor-
4G\	.	.	4G\	.	.	.	.	.	.	.	.	.	.	.
4F\	.	.	4F\	.	.	.	.	.	4a\	re-	.	.	.	.
4E\	.	.	4E\)	.	.	.	.	.	4g\	-a-	.	.	.	.
2D\	-tu(m)	.	2D,\	-tum	.	2A\	-tum	.	2f\	-tum	.	2dd\	-tum	.
*	*Xij	*	*	*	*	*	*Xij	*	*	*Xij	*	*custos:cc	*Xij	*
!	!	!	!	!	!	!	!	!	!	!	!	!LO:LB:g=original	!	!
=48-	=48	=48	=48	=48	=48	=48	=48	=48	=48	=48	=48	=48	=48	=48
1E	di-	.	1E	di-	.	1A	di-	.	1e	di-	.	1cc	di-	.
2E\	-lu-	-tu-	2E\	-lu-	-tu-	2G#X/	-lu-	-tu-	2e\	-lu-	-tu-	2b\	-lu-	-tu-
=49-	=49	=49	=49	=49	=49	=49	=49	=49	=49	=49	=49	=49	=49	=49
1.AA	-e	-is	1.AA	-e	-is	1.A	-e	-is	1.e	-e	-is	1.a	-e	-is
!	!	!	!LO:LB:g=original	!	!	!	!	!	!LO:LB:g=original	!	!	!	!	!
=50	=50	=50	=50	=50	=50	=50	=50	=50	=50	=50	=50	=50	=50	=50
2F\	ar-	Sur-	2F\	ar-	Sur-	2c\	ar-	Sur-	2f\	ar-	Sur-	2a\	ar-	Sur-
2F\	-cens	-re-	2F\	-cens	-re-	2c\	-cens	-re-	2f\	-cens	-re-	2a\	-cens	-re-
2F\	ma-	-xit	2F\	ma-	-xit	2c\	ma-	-xit	2f\	ma-	-xit	2cc\	ma-	-xit
=51-	=51	=51	=51	=51	=51	=51	=51	=51	=51	=51	=51	=51	=51	=51
1C	-li	ac	1C	-li	ac	1c	-li	ac	1e	-li	ac	1g	-li	ac
2D\	con-	Pa-	2D\	con-	Pa-	2A\	con-	Pa-	2d\	con-	Pa-	2f/	con-	Pa-
=52-	=52	=52	=52	=52	=52	=52	=52	=52	=52-	=52	=52	=52	=52	=52
1AA	-ta-	-ra-	1AA	-ta-	-ra-	1A	-ta-	-ra-	2d\	-ta-	-ra-	1e	-ta-	-ra-
.	.	.	.	.	.	.	.	.	2c#X/	.	.	.	.	.
2AA/	-gi-	-cli-	2AA/	-gi-	-cli-	2A\	-gi-	-cli-	2c#/	-gi-	-cli-	2e/	-gi-	-cli-
=53-	=53	=53	=53	=53	=53	=53	=53	=53	=53	=53	=53	=53-	=53	=53
1.D	-u(m)	-to	1.D,	-um	-to	1.A	-um	-to	1.d	-um	-to	1.f#X	-um	-to
!	!	!	!	!	!	!LO:LB:g=original	!	!	!	!	!	!	!	!
=54	=54	=54	=54	=54	=54	=54	=54	=54	=54	=54	=54	=54	=54	=54
2C/	Vi-	in	2C/	Vi-	in	2c\	Vi-	in	2e\	vi-	in	2g/	Vi-	in
2C/	-tae	sem-	2C/	-tae	sem-	2c\	-tae	sem-	2e\	-tae	sem-	2g/	-tae	sem-
2C/	re-	-pi-	2C/	re-	-pi-	2c\	re-	-pi-	2e\	re-	-pi-	2g/	re-	-pi-
=55-	=55	=55	=55	=55	=55	=55	=55	=55	=55	=55	=55	=55	=55	=55
1F	-pel-	-ter-	1F	-pel-	-ter-	1c	-pel-	-ter-	1f	-pel-	-ter-	1a	-pel-	-ter-
2C,/	-lens	-na	2C/	-lens	-na	2e\	-lens	-na	2e\	-lens	-na	2g/	-lens	-na
!LO:LB:g=original	!	!	!	!	!	!	!	!	!	!	!	!	!	!
=56	=56	=56	=56	=56	=56	=56	=56	=56	=56	=56	=56	=56	=56	=56
2.D/	tae-	sae-	2.D/	tae-	sae-	2.d\	tae-	sae-	1.f	tae-	sae-	4a\	tae-	sae-
.	.	.	.	.	.	.	.	.	.	.	.	4g\	.	.
.	.	.	.	.	.	.	.	.	.	.	.	4f/	.	.
4C/	.	.	4C/	.	.	4c\	.	.	.	.	.	4e/	.	.
4BB-X/	.	.	4BB-X/	.	.	1B-X	.	.	.	.	.	2d/	.	.
4AA/	.	.	4AA/	.	.	.	.	.	.	.	.	.	.	.
=57	=57	=57	=57	=57	=57	=57-	=57	=57	=57	=57	=57	=57	=57	=57
2GG/	.	.	2GG/	.	.	.	.	.	1e	.	.	1e	.	.
2.AA/	.	.	2.AA/	.	.	2A\	.	.	.	.	.	.	.	.
.	.	.	.	.	.	2A\	-di-	-cu-	2e\	di-	-cu-	2e/	-di-	-cu-
4AA/	-di-	-cu-	4AA/	-di-	-cu-	.	.	.	.	.	.	.	.	.
=58	=58	=58	=58	=58	=58	=58	=58	=58	=58	=58	=58	=58-	=58	=58
!	!	!	!	!	!	!LO:N:vis=0	!	!	!LO:N:vis=0.	!	!	!LO:N:vis=0	!	!
1.D	-um.	-la.	1.D	-um	-la.	1.A;	-um.	-la.	1.f#X	-um.	-la.	1.f#X;	-um	-la
!	!	!	!LO:LB:g=original	!	!	!	!	!	!LO:LB:g=original	!	!	!LO:LB:g=original	!	!
=59||	=59||	=59||	=59||	=59||	=59||	=59||	=59||	=59||	=59||	=59||	=59||	=59||	=59||	=59||
*M3/2	*	*	*M3/2	*	*	*M3/2	*	*	*M3/2	*	*	*M3/2	*	*
2D/yy	So-	.	2D/	So-	.	2A\	So-	.	2f\	So-	.	2d/	So-	.
2D/yy	-lu-	.	2D/	-lu-	.	2A\	-lu-	.	2d\	-lu-	.	2f/	-lu-	.
2C/yy	-ta	.	2C/	-ta	.	2c\	-ta	.	2e\	-ta	.	2g/	-ta	.
=60	=60	=60	=60	=60	=60	=60	=60	=60	=60	=60	=60	=60	=60	=60
2F\yy	sunt	.	2F,\	sunt	.	2c,\	sunt	.	2f,\	sunt	.	2a,\	sunt	.
2F\yy	jam	.	2F\	jam	.	2c\	jam	.	2f\	jam	.	2a\	jam	.
2C/yy	.	.	2C/	so-	.	2c\	So-	.	2e\	so-	.	2g\	so-	.
=61	=61	=61	=61	=61	=61	=61	=61	=61	=61	=61	=61	=61	=61	=61
1Dyy	so-	.	1D	-lu-	.	1A	-lu-	.	1d	-lu-	.	1f	-lu-	.
2C/yy	-lu-	.	2C/	-ta	.	2c\	-ta	.	2e\	-ta	.	2g/	-ta	.
!	!	!	!	!	!	!LO:LB:g=original	!	!	!	!	!	!	!	!
=62	=62	=62	=62	=62	=62	=62	=62	=62	=62	=62	=62	=62	=62	=62
2.F\yy	-ta	.	(2.F\	sunt	.	1c	sunt	.	1f	sunt	.	1a,	sunt	.
4G\yy	.	.	4G\)	.	.	.	.	.	.	.	.	.	.	.
2A\yy	sunt	.	2A\	jam	.	2c\	jam	.	2e\	jam	.	2a\	jam	.
=63	=63	=63	=63	=63	=63	=63	=63	=63	=63	=63	=63	=63	=63	=63
2D\yy	jam	.	2D,\	.	.	2d\	.	.	2f\	.	.	1a	vin-	.
2.E\yy	vin-	.	2.E\	vin-	.	2.Bn\	vin-	.	2.e\	Vin-	.	.	.	.
.	.	.	.	.	.	.	.	.	.	.	.	2g#X/	-cu-	.
4E\yy	-cu-	.	4E\	-cu-	.	4B\	-cu-	.	4e\	-cu-	.	.	.	.
=64	=64	=64	=64-	=64	=64	=64-	=64	=64	=64-	=64	=64	=64-	=64	=64
*M2/2	*	*	*M2/2	*	*	*M2/2	*	*	*M2/2	*	*	*M2/2	*	*
*met(c|)	*	*	*met(c|)	*	*	*met(c|)	*	*	*met(c|)	*	*	*met(c|)	*	*
2AA/yy	-la	.	2AA/	-la	.	2c#X\	-la	.	2e\	-la	.	2a,\	-la	.
2ryy	.	.	2r	.	.	2r	.	.	2r	.	.	2fn/	Tu-	.
=65	=65	=65	=65	=65	=65	=65	=65	=65	=65	=65	=65	=65	=65	=65
00ryy	.	.	00r	.	.	00r	.	.	0r	.	.	2.g\	-i	.
.	.	.	.	.	.	.	.	.	.	.	.	4g\	sa-	.
=66	=66	=66	=66	=66	=66	=66	=66	=66	=66	=66	=66	=66-	=66	=66
.	.	.	.	.	.	.	.	.	.	.	.	1a	-cra-	.
=67	=67	=67	=67	=67	=67	=67	=67	=67	=67	=67	=67	=67	=67	=67
.	.	.	.	.	.	.	.	.	1c	Tu-	.	2g,\	-ti	.
.	.	.	.	.	.	.	.	.	.	.	.	1cc\	sa-	.
=68	=68	=68	=68	=68	=68	=68	=68	=68	=68-	=68	=68	=68-	=68	=68
.	.	.	.	.	.	.	.	.	2.d\	-i	.	.	.	.
.	.	.	.	.	.	.	.	.	.	.	.	2b\	.	.
.	.	.	.	.	.	.	.	.	4d\	sa-	.	.	.	.
=69	=69	=69	=69	=69	=69	=69	=69	=69	=69	=69	=69	=69	=69	=69
0ryy	.	.	0r	.	.	1r	.	.	1e	-cra-	.	2cc\	-cra-	.
.	.	.	.	.	.	.	.	.	.	.	.	2g,\	-ti	.
*	*	*	*	*	*	*	*	*	*custos:c	*	*	*	*	*
!	!	!	!	!	!	!	!	!	!LO:LB:g=original	!	!	!	!	!
=70	=70	=70	=70	=70	=70	=70	=70	=70	=70	=70	=70	=70-	=70	=70
.	.	.	.	.	.	1F	Tu-	.	2c\	-ti	.	2.a\	cor-	.
.	.	.	.	.	.	.	.	.	1f	sa-	.	.	.	.
.	.	.	.	.	.	.	.	.	.	.	.	4a\	-po-	.
!	!	!	!	!	!	!	!	!	!	!	!	!LO:LB:g=original	!	!
=71	=71	=71	=71	=71	=71	=71-	=71	=71	=71-	=71	=71	=71	=71	=71
1Cyy	Tu-	.	1C	Tu-	.	2G/	-i	.	.	.	.	2g/	-ris	.
.	.	.	.	.	.	2A/	sa-	.	2e\	-cra-	.	4cc\	Sa-	.
.	.	.	.	.	.	.	.	.	.	.	.	4b\	.	.
=72	=72	=72	=72-	=72	=72	=72	=72	=72	=72	=72	=72	=72	=72	=72
2.D\yy	-i	.	2.D\	-i	.	2A/	-cra-	.	(4f\	.	.	2.a\	-cra-	.
.	.	.	.	.	.	.	.	.	4g\)	.	.	.	.	.
.	.	.	.	.	.	2F/	-ti	.	2a\	.	.	.	.	.
4D\yy	sa-	.	4D\	sa-	.	.	.	.	.	.	.	8g/L	.	.
.	.	.	.	.	.	.	.	.	.	.	.	8f/J	.	.
=73	=73	=73	=73	=73	=73	=73	=73	=73	=73	=73	=73	=73	=73	=73
1Eyy	-cra-	.	1E	-cra-	.	1G	Sa-	.	2.g\	.	.	4e/	.	.
.	.	.	.	.	.	.	.	.	.	.	.	4d/	.	.
.	.	.	.	.	.	.	.	.	.	.	.	4e/	.	.
.	.	.	.	.	.	.	.	.	4f\	.	.	4f/	.	.
*	*	*	*custos:C	*	*	*	*	*	*	*	*	*	*	*
!	!	!	!LO:LB:g=original	!	!	!	!	!	!	!	!	!	!	!
=74	=74	=74	=74	=74	=74	=74-	=74	=74	=74	=74	=74	=74	=74	=74
2C/,yy	-ti	.	2C/	-ti	.	1c	.	.	4e\	.	.	2g/	.	.
.	.	.	.	.	.	.	.	.	4d\	.	.	.	.	.
*	*ij	*	*	*	*	*	*	*	*	*	*	*	*	*
2C/yy	sa-	.	2C/	sa-	.	.	.	.	1c	-ti	.	4e/	-ti	.
.	.	.	.	.	.	.	.	.	.	.	.	4f/	.	.
=75	=75	=75	=75-	=75	=75	=75	=75	=75	=75-	=75	=75	=75	=75	=75
2G\yy	-cra-	.	2G\	-cra-	.	1d	-cra-	.	.	.	.	4g\	Cor-	.
.	.	.	.	.	.	.	.	.	.	.	.	4a\	.	.
2GG/yy	-ti	.	2GG/	-ti	.	.	.	.	2B/	.	.	1bn	.	.
*	*Xij	*	*	*	*	*	*	*	*	*	*	*	*	*
=76	=76	=76	=76	=76	=76	=76-	=76	=76	=76	=76	=76	=76-	=76	=76
4AA/yy	Cor-	.	4AA/	cor-	.	1c	-ti	.	1.e	Cor-	.	.	.	.
4BB/yy	.	.	4BB/	.	.	.	.	.	.	.	.	.	.	.
4C/yy	.	.	4C/	.	.	.	.	.	.	.	.	1a	.	.
4D/yy	.	.	4D/	.	.	.	.	.	.	.	.	.	.	.
=77	=77	=77	=77	=77	=77	=77	=77	=77	=77-	=77	=77	=77-	=77	=77
2.E\yy	.	.	2.E\	.	.	2.B\	Cor-	.	.	.	.	.	.	.
.	.	.	.	.	.	.	.	.	2e\	-po-	.	2g#X/	-po-	.
4E\yy	-po-	.	4E\	-po-	.	4B\	-po-	.	.	.	.	.	.	.
=78	=78	=78	=78-	=78	=78	=78-	=78	=78	=78-	=78	=78	=78	=78	=78
!	!	!	!	!	!	!	!	!	!	!	!	!LO:N:vis=2	!	!
1AAyy	-ris	.	1AA	-ris	.	1c#X	-ris.	.	1e	-ris	.	1.a,	-ris	.
!	!	!	!	!	!	!LO:LB:g=original	!	!	!	!	!	!	!	!
=79	=79	=79	=79	=79	=79	=79	=79	=79	=79	=79	=79	=79-	=79	=79
2ryy	.	.	2r	.	.	1A	nos	.	2r	.	.	.	.	.
2F\yy	nos	.	2F\	Nos	.	.	.	.	2f\	nos	.	2cc\	nos	.
!LO:LB:g=original	!	!	!	!	!	!	!	!	!	!	!	!	!	!
=80	=80	=80	=80	=80	=80	=80-	=80	=80	=80	=80	=80	=80	=80	=80
2F\,yy	sol-	.	2F\	sol-	.	2A\	sol-	.	2f\	sol-	.	2cc\	sol-	.
2C/yy	-ve	.	2C/	-ve	.	2c\	-ve	.	2e\	-ve	.	2cc\	-ve	.
=81	=81	=81	=81	=81	=81	=81	=81	=81	=81	=81	=81	=81	=81	=81
2C/yy	vin-	.	2C/	vin-	.	2G/	Vin-	.	2e\	vin-	.	2cc\	Vin-	.
2D\yy	-clis	.	2D\	-clis	.	2F/	-clis	.	2d\	-clis	.	2a\	-clis	.
=82	=82	=82	=82	=82	=82	=82	=82	=82	=82	=82	=82	=82	=82	=82
2.A\yy	sae-	.	2.AA/	sae-	.	2.E/	sae-	.	2d\	sae-	.	2.a\	sae-	.
.	.	.	.	.	.	.	.	.	2c#X\	-cu-	.	.	.	.
4AA/yy	-cu-	.	4AA/	-cu-	.	4E/	-cu-	.	.	.	.	4a\	-cu-	.
=83	=83	=83	=83-	=83	=83	=83	=83	=83	=83-	=83	=83	=83	=83	=83
1Dyy	-li	.	1D	-li,	.	2D,/	-li	.	1d	-li	.	1f#X	-li	.
.	.	.	.	.	.	2d\	do-	.	.	.	.	.	.	.
!	!	!	!	!	!	!	!	!	!	!	!	!LO:LB:g=original	!	!
=84	=84	=84	=84	=84	=84	=84	=84	=84	=84	=84	=84	=84	=84	=84
2ryy	.	.	2r	.	.	2d\	-no	.	00r	.	.	0r	.	.
2G\yy	do-	.	2G\	do-	.	2d\	Su-	.	.	.	.	.	.	.
=85	=85	=85	=85	=85	=85	=85	=85	=85	=85	=85	=85	=85	=85	=85
2G\,yy	-no	.	2G\	-no	.	2en\	-per-	.	.	.	.	.	.	.
2G\yy	su-	.	2G\	Su-	.	2d\	-ni	.	.	.	.	.	.	.
=86	=86	=86	=86	=86	=86	=86	=86	=86	=86	=86	=86	=86	=86	=86
2A\yy	-per-	.	2A\	-per-	.	2.A\	Nu-	.	.	.	.	1r	.	.
2G\yy	-ni	.	2G\	-ni	.	.	.	.	.	.	.	.	.	.
.	.	.	.	.	.	4G/	.	.	.	.	.	.	.	.
!	!	!	!LO:LB:g=original	!	!	!	!	!	!	!	!	!	!	!
=87	=87	=87	=87	=87	=87	=87-	=87	=87	=87	=87	=87	=87	=87	=87
4F\yy	.	.	4F\	Nu-	.	2A\	.	.	.	.	.	2r	.	.
4E\yy	.	.	4E\	.	.	.	.	.	.	.	.	.	.	.
4D\yy	.	.	4D\	.	.	2B\	-mi-	.	.	.	.	2dd\	do-	.
4E\yy	.	.	4E\	.	.	.	.	.	.	.	.	.	.	.
!	!	!	!	!	!	!	!	!	!LO:LB:g=original	!	!	!	!	!
=88	=88	=88	=88	=88	=88	=88-	=88	=88	=88	=88	=88	=88	=88	=88
2F\yy	Nu-	.	2F\	.	.	2c\	-nis.	.	2r	.	.	2dd\	-no	.
2G\yy	-mi-	.	2G\	-mi-	.	2r	.	.	2g\	do-	.	2dd\	Su-	.
=89	=89	=89	=89-	=89	=89	=89	=89	=89	=89	=89	=89	=89	=89	=89
1Cyy	-nis	.	1C	-nis	.	0r	.	.	2g\	-no	.	2.ee\	-per-	.
.	.	.	.	.	.	.	.	.	2g\	Su-	.	.	.	.
.	.	.	.	.	.	.	.	.	.	.	.	4dd\	-ni	.
=90	=90	=90	=90	=90	=90	=90	=90	=90	=90	=90	=90	=90-	=90	=90
1ryy	.	.	1r	.	.	.	.	.	2.a\	-per-	.	1.cc	Nu-	.
.	.	.	.	.	.	.	.	.	4g\	.	.	.	.	.
=91	=91	=91	=91	=91	=91	=91	=91	=91	=91	=91	=91	=91-	=91	=91
1Dyy	do-	.	1D	do-	.	1r	.	.	2f#X\	-ni	.	.	.	.
.	.	.	.	.	.	.	.	.	1g\	Nu-	.	2b\	.	.
=92	=92	=92	=92-	=92	=92	=92	=92	=92	=92-	=92	=92	=92	=92	=92
!	!	!	!	!	!	!LO:TX:t=P:problem:brakująca pauza?	!	!	!	!	!	!	!	!
2D\yy	-no	.	2D\	-no	.	1ryy	.	.	.	.	.	2.a\	.	.
2D\yy	su-	.	2D\	Su-	.	.	.	.	2f#X\	-mi-	.	.	.	.
.	.	.	.	.	.	.	.	.	.	.	.	4a\	-mi-	.
!	!	!	!	!	!	!LO:LB:g=original	!	!	!	!	!	!	!	!
=93	=93	=93	=93	=93	=93	=93	=93	=93	=93	=93	=93	=93-	=93	=93
2.E\yy	-per-	.	2.E\	-per-	.	2r	.	.	2g\	-nis	.	2g,/	-nis	.
.	.	.	.	.	.	2G/	Do-	.	4g\	do-	.	2e/	do-	.
!	!	!	!	!	!	!	!	!	!LO:SIC:v:s=4f#\	!	!	!	!	!
4D/yy	.	.	4D/	.	.	.	.	.	4f\	.	.	.	.	.
=94	=94	=94	=94	=94	=94	=94	=94	=94	=94	=94	=94	=94	=94	=94
2.C/yy	-ni	.	2.C/	.	.	2G/	-nô	.	2e,\	-no	.	2g\	-no	.
.	.	.	.	.	.	2G/	Su-	.	2c/	Su-	.	2g\	Su-	.
4BB/yy	.	.	4BB/	.	.	.	.	.	.	.	.	.	.	.
=95	=95	=95	=95	=95	=95	=95	=95	=95	=95	=95	=95	=95	=95	=95
4AA/yy	.	.	4AA/	-ni	.	1A	-per-	.	2c\	-per-	.	1.cc	-per-	.
4GG/yy	.	.	4GG/	.	.	.	.	.	.	.	.	.	.	.
2FF/yy	Nu-	.	2FF/	.	.	.	.	.	2c\	-ni	.	.	.	.
=96	=96	=96	=96	=96	=96	=96-	=96	=96	=96-	=96	=96	=96-	=96	=96
1GGyy	.	.	1GG	Nu-	.	1.G	-ni	.	2e\	Nu-	.	.	.	.
.	.	.	.	.	.	.	.	.	2d\	.	.	2b\	-ni	.
=97	=97	=97	=97	=97	=97	=97-	=97	=97	=97	=97	=97	=97	=97	=97
1.AAyy	.	.	1.AA	.	.	.	.	.	2c#X\	.	.	1.a	Nu-	.
.	.	.	.	.	.	2F/	.	.	1d	.	.	.	.	.
=98	=98	=98	=98-	=98	=98	=98	=98	=98	=98-	=98	=98	=98-	=98	=98
.	.	.	.	.	.	2.E/	Nu-	.	.	.	.	.	.	.
2AA/yy	-mi-	.	2AA/	-mi-	.	.	.	.	2c#X/	-mi-	.	2a\	-mi-	.
.	.	.	.	.	.	4E/	-mi-	.	.	.	.	.	.	.
=99	=99	=99	=99-	=99	=99	=99	=99	=99	=99	=99	=99	=99	=99	=99
0D;yy	-nis	.	0D;	-nis.	.	0F#X;	-nis.	.	0d;	-nis.	.	0a	-nis.	.
!	!	!	!LO:TX:b:rj:t=DEO Patri ut Supra	!	!	!LO:TX:b:rj:t=DEO Patri ut Supra	!	!	!LO:TX:b:rj:t=DEO Patri ut Supra	!	!	!LO:TX:b:rj:t=Deo Patri ut Supra	!	!
!	!	!	!LO:LB:g=original	!	!	!LO:LB:g=original	!	!	!LO:LB:g=original	!	!	!LO:LB:g=original	!	!
=100||	=100||	=100||	=100||	=100||	=100||	=100||	=100||	=100||	=100||	=100||	=100||	=100||	=100||	=100||
*M2/2	*	*	*M2/2	*	*	*M2/2	*	*	*	*	*	*	*	*
*met(c|)	*	*	*met(c|)	*	*	*met(c|)	*	*	*	*	*	*	*	*
0G	A-	.	0GG	A-	.	2.G/	A-	.	0d	A-	.	2.b-X\	A-	.
.	.	.	.	.	.	4A/	.	.	.	.	.	4a\	.	.
=101-	=101	=101	=101-	=101	=101	=101	=101	=101	=101-	=101	=101	=101	=101	=101
.	.	.	.	.	.	1B-X	.	.	.	.	.	1g	.	.
=102	=102	=102	=102	=102	=102	=102	=102	=102	=102	=102	=102	=102-	=102	=102
0D;	-men.	.	0D;	-men.	.	0A;	-men	.	0d;	-men.	.	0f#X;	-men	.
==	==	==	==	==	==	==	==	==	==	==	==	==	==	==
*-	*-	*-	*-	*-	*-	*-	*-	*-	*-	*-	*-	*-	*-	*-
!!!system-decoration: [s1,s2,s3,s4]s5
!!!RDF**kern: > = above
!!!RDF**kern: < = below
!!!RDF**kern: i = editorial accidental
!!!ENC: Filip Voros
!!!EED: Katarzyna Serwa
!!!END: 2024-04-15
!!!EEV: 2024-05-22
